!!!OTL: Der betruegerische Freier.
!!!OTL-incipit: Stolz Heinrich wollte freien gehn
!!!ARE: Europa, Mitteleuropa, Deutschland
!!!YOR: 2, S. 136
!!    1854 aufgezeichnet (ca.)
!!!SCT: Q0042G
!!!TXL: @@DE
!!!YEM: Copyright 1995, estate of Helmut Schaffrath.
**kern	**text
*ICvox	*
*M2/4	*
*k[b-e-]	*
*B-:	*
{8f	Stolʒ
=1	=1
8dd	Heinrich
8dd	.
8cc	woll-
8cc	-te
=2	=2
8b-	frei-
8b-	-en
8f}	gehn
{8f	wohl
=3	=3
8g	in
8g	das
8b-	fer-
8g	-ne
=4	=4
4f	Land;
8r}	.
{16fL	er
16e-J	.
=5	=5
8d	freit'
8f	des
8b-	Königs
8cc	.
=6	=6
8.dd	Töch-
16cc	-ter-
8b-}	-lein,
{8a	er
=7	=7
8g	freit'
8cc	des
8dd	Kö-
8ee-	-nigs
=8	=8
8.ff	Töch-
16ee-	-ter-
8dd}	-lein,
{8cc	Gy-
=9	=9
8b-	-rith
8b-	war
16b-L	ſie
16aJ	.
16gL	ge-
16aJ	.
=10	=10
4b-	-nannt.
8r}	.
==	==
!!!AGN: Ballade, Braut - Werbung, Betrug; tragisch
!!!ONB: ESAC (Essen Associative Code) Database: BALLADE
!!!AMT: simple duple
!!!AIN: vox
!!!EED: Helmut Schaffrath
!!!EEV: 1.0
!!!source: Deutsche Volkslieder mit ihren Melodien. Herausgegeben vom Deutschen Volksliedarchiv. Zweiter Band Balladen. Berlin 1939.
!!!page: 136
!!!ENC: Anna Maria Matuszewska
!!!EEV: 2025/02/17
*-	*-
